X: 114
T:Julia Delaney
M:C|
L:1/8
F:http://blackrosetheband.googlepages.com/ABCTUNES.ABC May 2009
R:reel
D:Paddy Glackin: Ceol ar an bhFidil le Paddy Glackin.
D:Bothy Band 1975.
Z:id:hn-reel-78
K:Ddor
"Dm"dcAG ~F3D|"Am"~E3C "Dm"~F3A|dcAG FDFG|"Am"Addc "Dm"defe|
dcAG ~F3D|"Am"~E3C "Dm"~F3A|dcAG FDFG|"Am"Addc "Dm"d2de:|
|:"Dm"fede fagf|"C"ecgc acgc|"Dm"fede fagf|"Am"edcB "Dm"Adde|
fede fagf|"C"ecgc acgc|"Dm"fedf edce|"Am"Addc "Dm"d2de:|

